src/assets/icons/fa/credit-card.svg

<?xml version="1.0" encoding="utf-8"?>
<svg width="2048" height="1792" viewBox="0 0 2048 1792" xmlns="http://www.w3.org/2000/svg"><path d="M1824 128q66 0 113 47t47 113v1216q0 66-47 113t-113 47h-1600q-66 0-113-47t-47-113v-1216q0-66 47-113t113-47h1600zm-1600 128q-13 0-22.5 9.5t-9.5 22.5v224h1664v-224q0-13-9.5-22.5t-22.5-9.5h-1600zm1600 1280q13 0 22.5-9.5t9.5-22.5v-608h-1664v608q0 13 9.5 22.5t22.5 9.5h1600zm-1504-128v-128h256v128h-256zm384 0v-128h384v128h-384z"/></svg>

<svg width="2048" height="1792" xmlns="http://www.w3.org/2000/svg"><path d="M1824 128q66 0 113 47t47 113v1216q0 66-47 113t-113 47H224q-66 0-113-47t-47-113V288q0-66 47-113t113-47h1600zM224 256q-13 0-22.5 9.5T192 288v224h1664V288q0-13-9.5-22.5T1824 256H224zm1600 1280q13 0 22.5-9.5t9.5-22.5V896H192v608q0 13 9.5 22.5t22.5 9.5h1600zM320 1408v-128h256v128H320zm384 0v-128h384v128H704z"/></svg>
